X:65
T: Gullane Jig
S: "Johnny O'Leary of Sliabh Luachra" (#1)
Z: B.Black
Q: 300
L: 1/8
M: 6/8
R: jig
K: D
de|f/e/dB AFA|DFD DFA|B/c/dB AFA|ABd ede|
f/e/dB AFA|DFD DFA|B/c/dB AFA|Bdd d2 :|
faa e/f/ge|dBA d2e|f2f ede|faa bag|
faf e/f/ge|dBA d2e|fdB AFA|Bdd d2e :|
